public/avatar/emote/7.svg

<svg xmlns:xlink="http://www.w3.org/1999/xlink" height="100.8" width="132.65" xmlns="http://www.w3.org/2000/svg"><use height="14.45" transform="translate(65.5 66.3)" width="24.45" xlink:href="#a"/><defs><g id="a"><path d="M2.7-3.25q.4-.55.95-.5.55-.05.95.5.4.5.4 1.35 0 .75-.4 1.3-.4.5-.95.5-.55 0-.95-.5-.4-.55-.35-1.3-.05-.85.35-1.35m.65 1.55.3-.2.2-.45-.2-.5-.3-.15q-.25-.05-.35.15l-.15.5q0 .25.15.45l.35.2" fill-rule="evenodd" transform="translate(12.25 7.25)"/><path d="M2.7-3.25q-.4.5-.35 1.35-.05.75.35 1.3.4.5.95.5.55 0 .95-.5.4-.55.4-1.3 0-.85-.4-1.35-.4-.55-.95-.5-.55-.05-.95.5M.4-1.95v-.35Q.35-4.35 1.55-5.75q1.1-1.45 2.3-.75 1.2.65 2.35 2.1l1.65 2.25q.45.8.2 1.7l-.9 1.6q-1 1.2-2.3 1.4l-.5.05-1-.15q-1.05-.35-1.8-1.3Q.5-.2.4-1.95M-2.8 2.3l-1.5.35-1.1-.2q-.95-.3-1.7-1.25Q-7.7.5-8-.4q-.25-.85.15-1.65l1.6-2.35q1.1-1.5 2.35-2.1 1.25-.65 2.4.8Q-.35-4.25-.35-2.25v.3Q-.45-.15-1.5 1.2l-1.3 1.1m6.15-4L3-1.9q-.15-.2-.15-.45l.15-.5q.1-.2.35-.15l.3.15.2.5-.2.45-.3.2" fill="#fff" fill-rule="evenodd" transform="translate(12.25 7.25)"/><path d="M-.35-1.95H.4Q.5-.2 1.55 1.15q.75.95 1.8 1.3L.9 2.3h-3.7l1.3-1.1Q-.45-.15-.35-1.95m8.4 1.5.6.3q3.5 1.8 3.55 2.8 0 .95-3.15.4l-4.2-.5q1.3-.2 2.3-1.4l.9-1.6M-5.4 2.45l-2.75.4-4.1-.2q0-.95 3.7-2.75L-8-.4q.3.9.9 1.6.75.95 1.7 1.25" fill-opacity=".153" fill-rule="evenodd" transform="translate(12.25 7.25)"/><path d="M.4-1.95v-.35Q.35-4.35 1.55-5.75q1.1-1.45 2.3-.75 1.2.65 2.35 2.1l1.65 2.25q.45.8.2 1.7l-.9 1.6q-1 1.2-2.3 1.4l-.5.05-1-.15q-1.05-.35-1.8-1.3Q.5-.2.4-1.95M-2.8 2.3l-1.5.35-1.1-.2q-.95-.3-1.7-1.25Q-7.7.5-8-.4q-.25-.85.15-1.65l1.6-2.35q1.1-1.5 2.35-2.1 1.25-.65 2.4.8Q-.35-4.25-.35-2.25v.3Q-.45-.15-1.5 1.2l-1.3 1.1m9.15 4.4Q1.7 2.4-3.65 5q-1.4.6-2.65 1.45" fill="none" stroke="#666" stroke-linecap="round" stroke-linejoin="round" transform="translate(12.25 7.25)"/><path d="M-3.5-3.75q.55-.05.95.45.4.55.4 1.35t-.4 1.3q-.4.55-.95.55-.55 0-.95-.55-.4-.5-.4-1.3t.4-1.35q.4-.5.95-.45m.15 1.4-.15-.5q-.1-.2-.3-.2-.2 0-.35.2l-.15.5.15.4.35.25q.2-.05.3-.25.15-.15.15-.4" fill-rule="evenodd" transform="translate(12.25 7.25)"/><path d="M-3.35-2.35q0 .25-.15.4-.1.2-.3.25l-.35-.25-.15-.4.15-.5q.15-.2.35-.2.2 0 .3.2l.15.5" fill="#fff" fill-rule="evenodd" transform="translate(12.25 7.25)"/></g></defs></svg>

<?xml version="1.0" encoding="UTF-8" standalone="no"?>
<svg xmlns:xlink="http://www.w3.org/1999/xlink" height="100.8px" width="132.65px" xmlns="http://www.w3.org/2000/svg">
  <g transform="matrix(1.0, 0.0, 0.0, 1.0, 77.75, 73.55)">
    <use height="14.45" transform="matrix(1.0, 0.0, 0.0, 1.0, -12.25, -7.25)" width="24.45" xlink:href="#shape0"/>
  </g>
  <defs>
    <g id="shape0" transform="matrix(1.0, 0.0, 0.0, 1.0, 12.25, 7.25)">
      <path d="M2.7 -3.25 Q3.1 -3.8 3.65 -3.75 4.2 -3.8 4.6 -3.25 5.0 -2.75 5.0 -1.9 5.0 -1.15 4.6 -0.6 4.2 -0.1 3.65 -0.1 3.1 -0.1 2.7 -0.6 2.3 -1.15 2.35 -1.9 2.3 -2.75 2.7 -3.25 M3.35 -1.7 L3.65 -1.9 3.85 -2.35 3.65 -2.85 3.35 -3.0 Q3.1 -3.05 3.0 -2.85 L2.85 -2.35 Q2.85 -2.1 3.0 -1.9 L3.35 -1.7" fill="#000000" fill-rule="evenodd" stroke="none"/>
      <path d="M2.7 -3.25 Q2.3 -2.75 2.35 -1.9 2.3 -1.15 2.7 -0.6 3.1 -0.1 3.65 -0.1 4.2 -0.1 4.6 -0.6 5.0 -1.15 5.0 -1.9 5.0 -2.75 4.6 -3.25 4.2 -3.8 3.65 -3.75 3.1 -3.8 2.7 -3.25 M0.4 -1.95 L0.4 -2.3 Q0.35 -4.35 1.55 -5.75 2.65 -7.2 3.85 -6.5 5.05 -5.85 6.2 -4.4 L7.85 -2.15 Q8.3 -1.35 8.05 -0.45 L7.15 1.15 Q6.15 2.35 4.85 2.55 L4.35 2.6 3.35 2.45 Q2.3 2.1 1.55 1.15 0.5 -0.2 0.4 -1.95 M-2.8 2.3 L-4.3 2.65 -5.4 2.45 Q-6.35 2.15 -7.1 1.2 -7.7 0.5 -8.0 -0.4 -8.25 -1.25 -7.85 -2.05 L-6.25 -4.4 Q-5.15 -5.9 -3.9 -6.5 -2.65 -7.15 -1.5 -5.7 -0.35 -4.25 -0.35 -2.25 L-0.35 -1.95 Q-0.45 -0.15 -1.5 1.2 L-2.8 2.3 M3.35 -1.7 L3.0 -1.9 Q2.85 -2.1 2.85 -2.35 L3.0 -2.85 Q3.1 -3.05 3.35 -3.0 L3.65 -2.85 3.85 -2.35 3.65 -1.9 3.35 -1.7" fill="#ffffff" fill-rule="evenodd" stroke="none"/>
      <path d="M-0.35 -1.95 L0.15 -1.95 0.4 -1.95 Q0.5 -0.2 1.55 1.15 2.3 2.1 3.35 2.45 L0.9 2.3 -2.8 2.3 -1.5 1.2 Q-0.45 -0.15 -0.35 -1.95 M8.05 -0.45 L8.65 -0.15 Q12.15 1.65 12.2 2.65 12.2 3.6 9.05 3.05 L4.85 2.55 Q6.15 2.35 7.15 1.15 L8.05 -0.45 M-5.4 2.45 L-8.15 2.85 -12.25 2.65 Q-12.25 1.7 -8.55 -0.1 L-8.0 -0.4 Q-7.7 0.5 -7.1 1.2 -6.35 2.15 -5.4 2.45" fill="#000000" fill-opacity="0.15294118" fill-rule="evenodd" stroke="none"/>
      <path d="M0.4 -1.95 L0.4 -2.3 Q0.35 -4.35 1.55 -5.75 2.65 -7.2 3.85 -6.5 5.05 -5.85 6.2 -4.4 L7.85 -2.15 Q8.3 -1.35 8.05 -0.45 L7.15 1.15 Q6.15 2.35 4.85 2.55 L4.35 2.6 3.35 2.45 Q2.3 2.1 1.55 1.15 0.5 -0.2 0.4 -1.95 M-2.8 2.3 L-4.3 2.65 -5.4 2.45 Q-6.35 2.15 -7.1 1.2 -7.7 0.5 -8.0 -0.4 -8.25 -1.25 -7.85 -2.05 L-6.25 -4.4 Q-5.15 -5.9 -3.9 -6.5 -2.65 -7.15 -1.5 -5.7 -0.35 -4.25 -0.35 -2.25 L-0.35 -1.95 Q-0.45 -0.15 -1.5 1.2 L-2.8 2.3 M6.35 6.7 Q1.7 2.4 -3.65 5.0 -5.05 5.6 -6.3 6.45" fill="none" stroke="#666666" stroke-linecap="round" stroke-linejoin="round" stroke-width="1.0"/>
      <path d="M-3.5 -3.75 Q-2.95 -3.8 -2.55 -3.3 -2.15 -2.75 -2.15 -1.95 -2.15 -1.15 -2.55 -0.65 -2.95 -0.1 -3.5 -0.1 -4.05 -0.1 -4.45 -0.65 -4.85 -1.15 -4.85 -1.95 -4.85 -2.75 -4.45 -3.3 -4.05 -3.8 -3.5 -3.75 M-3.35 -2.35 L-3.5 -2.85 Q-3.6 -3.05 -3.8 -3.05 -4.0 -3.05 -4.15 -2.85 L-4.3 -2.35 -4.15 -1.95 -3.8 -1.7 Q-3.6 -1.75 -3.5 -1.95 -3.35 -2.1 -3.35 -2.35" fill="#000000" fill-rule="evenodd" stroke="none"/>
      <path d="M-3.35 -2.35 Q-3.35 -2.1 -3.5 -1.95 -3.6 -1.75 -3.8 -1.7 L-4.15 -1.95 -4.3 -2.35 -4.15 -2.85 Q-4.0 -3.05 -3.8 -3.05 -3.6 -3.05 -3.5 -2.85 L-3.35 -2.35" fill="#ffffff" fill-rule="evenodd" stroke="none"/>
    </g>
  </defs>
</svg>
